X: 51
T:Slingsbys Allemand. WCa.51
M:2/4
L:1/16
Q:100
S:Wm. Calvert MS, 1812, Leyburn, Yorks.
R:Allemande
O:England
A:North Yorkshire
Z:vmp.Chris Partington, May 2003
K:D
f2|egec d2f2|egec d2A2|B2A2B2c2|dcde d2f2|!
egec d2f2|egec d2A2|B2A2B2c2|d4D2:|!
|:g2|fafd fafd|gbge gbge|fafd fafd|cece c2g2|!
fafd fafd|gbge gbge|fafd egec|d4D2:||
